;START_OF_HEADER
;HEADER_VERSION:0.1
;FLAVOR:Griffin
;GENERATOR.NAME:Cura_SteamEngine
;GENERATOR.VERSION:4.0.0
;GENERATOR.BUILD_DATE:2019-03-19
;TARGET_MACHINE.NAME:Ultimaker 3
;EXTRUDER_TRAIN.0.INITIAL_TEMPERATURE:100
;EXTRUDER_TRAIN.0.MATERIAL.VOLUME_USED:1706
;EXTRUDER_TRAIN.0.MATERIAL.GUID:506c9f0d-e3aa-4bd4-b2d2-23e2425b1aa9
;EXTRUDER_TRAIN.0.NOZZLE.DIAMETER:0.4
;EXTRUDER_TRAIN.0.NOZZLE.NAME:AA 0.4
;EXTRUDER_TRAIN.1.INITIAL_TEMPERATURE:200
;EXTRUDER_TRAIN.1.MATERIAL.VOLUME_USED:75
;EXTRUDER_TRAIN.1.MATERIAL.GUID:506c9f0d-e3aa-4bd4-b2d2-23e2425b1aa9
;EXTRUDER_TRAIN.1.NOZZLE.DIAMETER:0.4
;EXTRUDER_TRAIN.1.NOZZLE.NAME:AA 0.4
;BUILD_PLATE.TYPE:glass
;BUILD_PLATE.INITIAL_TEMPERATURE:60
;PRINT.TIME:3799
;PRINT.GROUPS:1
;PRINT.SIZE.MIN.X:14.823
;PRINT.SIZE.MIN.Y:6
;PRINT.SIZE.MIN.Z:0.27
;PRINT.SIZE.MAX.X:213
;PRINT.SIZE.MAX.Y:217
;PRINT.SIZE.MAX.Z:18.03
;END_OF_HEADER
;Generated with Cura_SteamEngine 4.0.0
T1
M82 ;absolute extrusion mode

G92 E0
M109 S200
G0 F15000 X204 Y6 Z2
G280
G1 F1500 E-6.5
;LAYER_COUNT:297
;LAYER:0
M107
M104 T0 S200
M204 S625
M205 X6 Y6
G0 F5000 X41.64 Y157.005 Z0.27
M204 S500
M205 X5 Y5
;TYPE:SKIRT
G1 F1500 E0
G1 F1200 X41.873 Y157.316 E0.00691
G1 X42.038 Y157.667 E0.0138
G1 X42.128 Y158.045 E0.02071
G1 X42.144 Y158.29 E0.02507
G1 X42.144 Y174.29 E0.30949
G1 X42.104 Y174.676 E0.31639
G1 X41.986 Y175.046 E0.32329
G1 X41.795 Y175.384 E0.33019
G1 X41.539 Y175.676 E0.3371
G1 X41.228 Y175.909 E0.344
G1 X40.877 Y176.074 E0.3509
G1 X40.499 Y176.164 E0.3578
G1 X40.254 Y176.18 E0.36217
G1 X38.254 Y176.18 E0.39772
G1 X37.868 Y176.14 E0.40462
G1 X37.498 Y176.022 E0.41152
G1 X37.16 Y175.831 E0.41842
G1 X36.868 Y175.575 E0.42533
G1 X36.635 Y175.264 E0.43223
G1 X36.47 Y174.913 E0.43913
G1 X36.38 Y174.535 E0.44604
G1 X36.364 Y174.29 E0.4504
G1 X36.364 Y172.358 E0.48474
G1 X30.923 Y169.079 E0.59767
G1 X30.612 Y168.845 E0.60459
G1 X30.446 Y168.67 E0.60887
G1 X29.995 Y168.129 E0.62139
G1 X29.779 Y167.807 E0.62829
G1 X29.596 Y167.299 E0.63789
G1 X29.454 Y166.608 E0.65043
G1 X29.415 Y166.222 E0.65732
G1 X29.456 Y165.838 E0.66419
G1 X29.554 Y165.373 E0.67263
G1 X29.672 Y165.003 E0.67954
G1 X29.775 Y164.804 E0.68352
G1 X30.013 Y164.4 E0.69186
G1 X30.243 Y164.087 E0.69876
G1 X30.413 Y163.923 E0.70296
G1 X30.772 Y163.616 E0.71136
G1 X31.091 Y163.395 E0.71825
G1 X31.294 Y163.299 E0.72225
G1 X31.585 Y163.182 E0.72782
G1 X36.364 Y160.235 E0.82763
G1 X36.364 Y158.29 E0.8622
G1 X36.404 Y157.904 E0.8691
G1 X36.522 Y157.534 E0.876
G1 X36.713 Y157.196 E0.8829
G1 X36.969 Y156.904 E0.88981
G1 X37.28 Y156.671 E0.89671
G1 X37.631 Y156.506 E0.90361
G1 X38.009 Y156.416 E0.91052
G1 X38.254 Y156.4 E0.91488
G1 X40.254 Y156.4 E0.95043
G1 X40.64 Y156.44 E0.95733
G1 X41.01 Y156.558 E0.96423
G1 X41.348 Y156.749 E0.97113
G1 X41.64 Y157.005 E0.97804
M204 S625
M205 X6 Y6
G0 F5000 X41.436 Y157.416
M204 S500
M205 X5 Y5
G1 F1200 X41.606 Y157.713 E0.98412
G1 X41.703 Y158.041 E0.9902
G1 X41.724 Y158.29 E0.99464
G1 X41.724 Y174.29 E1.27906
G1 X41.684 Y174.63 E1.28514
G1 X41.567 Y174.952 E1.29123
G1 X41.378 Y175.237 E1.29731
G1 X41.128 Y175.472 E1.30341
G1 X40.831 Y175.642 E1.3095
G1 X40.503 Y175.739 E1.31558
G1 X40.254 Y175.76 E1.32002
G1 X38.254 Y175.76 E1.35557
G1 X37.914 Y175.72 E1.36165
G1 X37.592 Y175.603 E1.36774
G1 X37.307 Y175.414 E1.37382
G1 X37.072 Y175.164 E1.37992
G1 X36.902 Y174.867 E1.38601
G1 X36.805 Y174.539 E1.39209
G1 X36.784 Y174.29 E1.39653
G1 X36.784 Y172.121 E1.43508
G1 X31.139 Y168.719 E1.55224
G1 X30.769 Y168.401 E1.56092
G1 X30.318 Y167.86 E1.57344
G1 X30.131 Y167.574 E1.57951
G1 X30.007 Y167.215 E1.58626
G1 X29.865 Y166.524 E1.5988
G1 X29.836 Y166.183 E1.60489
G1 X29.867 Y165.925 E1.6095
G1 X29.965 Y165.46 E1.61795
G1 X30.136 Y165.017 E1.62639
G1 X30.374 Y164.613 E1.63473
G1 X30.686 Y164.242 E1.64334
G1 X31.045 Y163.935 E1.65174
G1 X31.451 Y163.688 E1.66019
G1 X31.778 Y163.556 E1.66646
G1 X36.784 Y160.469 E1.771
G1 X36.784 Y158.29 E1.80974
G1 X36.824 Y157.95 E1.81582
G1 X36.941 Y157.628 E1.82191
G1 X37.13 Y157.343 E1.82799
G1 X37.38 Y157.108 E1.83409
G1 X37.677 Y156.938 E1.84017
G1 X38.005 Y156.841 E1.84625
G1 X38.254 Y156.82 E1.8507
G1 X40.254 Y156.82 E1.88625
G1 X40.594 Y156.86 E1.89233
G1 X40.916 Y156.977 E1.89842
G1 X41.201 Y157.166 E1.9045
G1 X41.436 Y157.416 E1.9106
M204 S625
M205 X6 Y6
G0 F5000 X41.028 Y157.58
M204 S500
M205 X5 Y5
G1 F1200 X41.192 Y157.818 E1.91574
G1 X41.285 Y158.092 E1.92088
G1 X41.304 Y158.29 E1.92442
G1 X41.304 Y174.29 E2.20883
G1 X41.264 Y174.576 E2.21397
G1 X41.148 Y174.841 E2.21911
G1 X40.964 Y175.064 E2.22425
G1 X40.726 Y175.228 E2.22939
G1 X40.452 Y175.321 E2.23453
G1 X40.254 Y175.34 E2.23807
G1 X38.254 Y175.34 E2.27362
G1 X37.968 Y175.3 E2.27875
G1 X37.703 Y175.184 E2.28389
G1 X37.48 Y175 E2.28903
G1 X37.316 Y174.762 E2.29417
G1 X37.223 Y174.488 E2.29931
G1 X37.204 Y174.29 E2.30285
G1 X37.204 Y171.883 E2.34564
G1 X31.356 Y168.359 E2.46701
G1 X31.091 Y168.132 E2.47321
G1 X30.64 Y167.591 E2.48573
G1 X30.488 Y167.346 E2.49085
G1 X30.418 Y167.13 E2.49489
G1 X30.276 Y166.439 E2.50743
G1 X30.278 Y166.011 E2.51504
G1 X30.376 Y165.546 E2.52349
G1 X30.498 Y165.23 E2.52951
G1 X30.736 Y164.826 E2.53784
G1 X30.959 Y164.561 E2.544
G1 X31.318 Y164.254 E2.5524
G1 X31.608 Y164.078 E2.55843
G1 X31.966 Y163.934 E2.56529
G1 X37.204 Y160.704 E2.67468
G1 X37.204 Y158.29 E2.71759
G1 X37.244 Y158.004 E2.72272
G1 X37.36 Y157.739 E2.72786
G1 X37.544 Y157.516 E2.733
G1 X37.782 Y157.352 E2.73814
G1 X38.056 Y157.259 E2.74328
G1 X38.254 Y157.24 E2.74682
G1 X40.254 Y157.24 E2.78237
G1 X40.54 Y157.28 E2.7875
G1 X40.805 Y157.396 E2.79265
G1 X41.028 Y157.58 E2.79779
M204 S625
M205 X6 Y6
G0 F5000 X40.666 Y157.814
M204 S500
M205 X5 Y5
G1 F1200 X40.807 Y157.988 E2.80177
G1 X40.884 Y158.29 E2.80731
G1 X40.884 Y174.29 E3.09172
G1 X40.844 Y174.51 E3.0957
G1 X40.73 Y174.702 E3.09967
G1 X40.556 Y174.843 E3.10365
G1 X40.254 Y174.92 E3.10919
G1 X38.254 Y174.92 E3.14474
G1 X38.034 Y174.88 E3.14871
G1 X37.842 Y174.766 E3.15268
G1 X37.701 Y174.592 E3.15666
G1 X37.624 Y174.29 E3.1622
G1 X37.624 Y171.646 E3.2092
G1 X31.573 Y168 E3.33478
G1 X31.414 Y167.863 E3.33851
G1 X30.963 Y167.322 E3.35103
G1 X30.83 Y167.046 E3.35648
G1 X30.688 Y166.355 E3.36902
G1 X30.689 Y166.098 E3.37359
G1 X30.787 Y165.633 E3.38204
G1 X30.86 Y165.443 E3.38565
G1 X31.098 Y165.039 E3.39399
G1 X31.232 Y164.88 E3.39769
G1 X31.591 Y164.573 E3.40608
G1 X31.765 Y164.468 E3.4097
G1 X32.155 Y164.311 E3.41717
G1 X37.624 Y160.938 E3.53139
G1 X37.624 Y158.29 E3.57846
G1 X37.664 Y158.07 E3.58243
G1 X37.778 Y157.878 E3.5864
G1 X37.952 Y157.737 E3.59038
G1 X38.254 Y157.66 E3.59592
G1 X40.254 Y157.66 E3.63148
G1 X40.474 Y157.7 E3.63545
G1 X40.666 Y157.814 E3.63942
M204 S625
M205 X6 Y6
G0 F5000 X40.376 Y158.119
M204 S500
M205 X5 Y5
G1 F1200 X40.453 Y158.222 E3.64171
G1 X40.464 Y158.29 E3.64293
G1 X40.464 Y174.29 E3.92735
G1 X40.425 Y174.412 E3.92962
G1 X40.322 Y174.489 E3.93191
G1 X40.254 Y174.5 E3.93313
G1 X38.254 Y174.5 E3.96869
G1 X38.132 Y174.461 E3.97096
G1 X38.055 Y174.358 E3.97325
G1 X38.044 Y174.29 E3.97447
G1 X38.044 Y171.409 E4.02569
G1 X31.79 Y167.64 E4.15548
G1 X31.737 Y167.594 E4.15673
G1 X31.286 Y167.053 E4.16925
G1 X31.241 Y166.961 E4.17107
G1 X31.099 Y166.27 E4.18361
G1 X31.1 Y166.185 E4.18512
G1 X31.198 Y165.72 E4.19357
G1 X31.222 Y165.656 E4.19479
G1 X31.46 Y165.252 E4.20312
G1 X31.505 Y165.199 E4.20436
G1 X31.864 Y164.892 E4.21275
G1 X31.922 Y164.857 E4.21396
G1 X32.347 Y164.686 E4.2221
G1 X38.044 Y161.173 E4.34108
G1 X38.044 Y158.29 E4.39232
G1 X38.083 Y158.168 E4.3946
G1 X38.186 Y158.091 E4.39689
G1 X38.254 Y158.08 E4.39811
G1 X40.254 Y158.08 E4.43366
G1 X40.376 Y158.119 E4.43594
M204 S625
M205 X6 Y6
G1 F1500 E-2.06406
G0 F5000 X40.376 Y155.25
G0 X29.727 Y145.583
G0 X28.577 Y145.584
M204 S500
M205 X5 Y5
G1 F1500 E4.43594
G1 F1200 X28.597 Y170.234 E4.87412
G1 X28.574 Y170.529 E4.87938
G1 X28.415 Y171.544 E4.89764
G1 X28.318 Y171.914 E4.90444
G1 X27.957 Y172.877 E4.92272
G1 X27.781 Y173.229 E4.92972
G1 X27.227 Y174.099 E4.94805
G1 X26.986 Y174.404 E4.95496
G1 X26.271 Y175.137 E4.97316
G1 X25.974 Y175.385 E4.98004
G1 X25.12 Y175.96 E4.99834
G1 X24.778 Y176.142 E5.00523
G1 X23.824 Y176.531 E5.02354
G1 X23.448 Y176.641 E5.03051
G1 X22.436 Y176.825 E5.04879
G1 X22.05 Y176.854 E5.05567
G1 X21.021 Y176.828 E5.07397
G1 X20.634 Y176.778 E5.08091
G1 X19.635 Y176.542 E5.09915
G1 X19.269 Y176.415 E5.10604
G1 X18.34 Y175.98 E5.12427
G1 X18.008 Y175.78 E5.13116
G1 X17.182 Y175.161 E5.14951
G1 X16.894 Y174.895 E5.15648
G1 X16.216 Y174.122 E5.17476
G1 X15.991 Y173.805 E5.18167
G1 X15.487 Y172.912 E5.1999
G1 X15.333 Y172.56 E5.20673
G1 X15.019 Y171.581 E5.225
G1 X14.939 Y171.199 E5.23194
G1 X14.833 Y170.176 E5.25022
G1 X14.823 Y169.98 E5.25371
G1 X14.83 Y145.785 E5.6838
G1 X14.866 Y145.419 E5.69034
G1 X15.019 Y144.647 E5.70433
G1 X15.178 Y144.178 E5.71313
G1 X15.524 Y143.476 E5.72704
G1 X15.799 Y143.065 E5.73583
G1 X16.313 Y142.48 E5.74968
G1 X16.681 Y142.157 E5.75838
G1 X17.335 Y141.719 E5.77237
G1 X17.779 Y141.499 E5.78118
G1 X18.518 Y141.248 E5.79505
G1 X18.897 Y141.162 E5.80196
G1 X19.114 Y141.148 E5.80583
G1 X24.095 Y141.116 E5.89437
G1 X24.594 Y141.18 E5.90331
G1 X25.348 Y141.381 E5.91719
G1 X25.809 Y141.572 E5.92606
G1 X26.487 Y141.965 E5.93999
G1 X26.875 Y142.264 E5.94869
G1 X27.429 Y142.818 E5.96262
G1 X27.728 Y143.206 E5.97133
G1 X28.121 Y143.884 E5.98526
G1 X28.312 Y144.345 E5.99413
G1 X28.513 Y145.099 E6.008
G1 X28.577 Y145.584 E6.0167
M204 S625
M205 X6 Y6
G0 F5000 X28.157 Y145.585
M204 S500
M205 X5 Y5
G1 F1200 X28.177 Y170.235 E6.45487
G1 X28.159 Y170.464 E6.45896
G1 X28 Y171.479 E6.47722
G1 X27.924 Y171.767 E6.48251
G1 X27.563 Y172.73 E6.5008
G1 X27.427 Y173.004 E6.50623
G1 X26.873 Y173.874 E6.52457
G1 X26.685 Y174.11 E6.52993
G1 X25.97 Y174.843 E6.54813
G1 X25.739 Y175.036 E6.55348
G1 X24.885 Y175.611 E6.57179
G1 X24.619 Y175.753 E6.57715
G1 X23.665 Y176.142 E6.59546
G1 X23.373 Y176.227 E6.60087
G1 X22.361 Y176.411 E6.61915
G1 X22.061 Y176.435 E6.6245
G1 X21.032 Y176.409 E6.6428
G1 X20.731 Y176.37 E6.64819
G1 X19.732 Y176.134 E6.66644
G1 X19.447 Y176.034 E6.67181
G1 X18.518 Y175.599 E6.69004
G1 X18.259 Y175.444 E6.69541
G1 X17.433 Y174.825 E6.71376
G1 X17.21 Y174.618 E6.71916
G1 X16.532 Y173.845 E6.73744
G1 X16.357 Y173.599 E6.74281
G1 X15.853 Y172.706 E6.76104
G1 X15.733 Y172.432 E6.76635
G1 X15.419 Y171.453 E6.78463
G1 X15.357 Y171.156 E6.79002
G1 X15.251 Y170.133 E6.80831
G1 X15.243 Y169.981 E6.81101
G1 X15.25 Y145.786 E7.2411
G1 X15.278 Y145.5 E7.24621
G1 X15.431 Y144.728 E7.2602
G1 X15.554 Y144.364 E7.26703
G1 X15.9 Y143.662 E7.28094
G1 X16.115 Y143.342 E7.28779
G1 X16.629 Y142.757 E7.30164
G1 X16.915 Y142.506 E7.3084
G1 X17.569 Y142.068 E7.32239
G1 X17.914 Y141.897 E7.32924
G1 X18.653 Y141.646 E7.34311
G1 X19.117 Y141.568 E7.35147
G1 X24.098 Y141.536 E7.44002
G1 X24.486 Y141.586 E7.44697
G1 X25.24 Y141.787 E7.46084
G1 X25.598 Y141.935 E7.46773
G1 X26.276 Y142.328 E7.48166
G1 X26.578 Y142.561 E7.48844
G1 X27.132 Y143.115 E7.50237
G1 X27.365 Y143.417 E7.50915
G1 X27.758 Y144.095 E7.52308
G1 X27.906 Y144.453 E7.52996
G1 X28.107 Y145.207 E7.54384
G1 X28.157 Y145.585 E7.55061
M204 S625
M205 X6 Y6
G0 F5000 X27.737 Y145.585
M104 S180
M204 S500
M205 X5 Y5
G1 F1200 X27.757 Y170.235 E7.98879
G1 X27.744 Y170.399 E7.99172
G1 X27.585 Y171.414 E8.00998
G1 X27.531 Y171.62 E8.01376
G1 X27.17 Y172.583 E8.03205
G1 X27.073 Y172.778 E8.03592
G1 X26.519 Y173.648 E8.05425
G1 X26.385 Y173.817 E8.05809
G1 X25.67 Y174.55 E8.07629
G1 X25.504 Y174.688 E8.08012
G1 X24.65 Y175.263 E8.09843
G1 X24.46 Y175.364 E8.10225
G1 X23.506 Y175.753 E8.12056
G1 X23.298 Y175.814 E8.12442
G1 X22.286 Y175.998 E8.1427
G1 X22.071 Y176.015 E8.14654
G1 X21.042 Y175.989 E8.16483
G1 X20.828 Y175.961 E8.16867
G1 X19.829 Y175.725 E8.18692
G1 X19.625 Y175.654 E8.19076
G1 X18.696 Y175.219 E8.20899
G1 X18.511 Y175.108 E8.21283
G1 X17.685 Y174.489 E8.23117
G1 X17.526 Y174.341 E8.23504
G1 X16.848 Y173.568 E8.25331
G1 X16.723 Y173.392 E8.25715
G1 X16.219 Y172.499 E8.27538
G1 X16.133 Y172.304 E8.27917
G1 X15.819 Y171.325 E8.29744
G1 X15.775 Y171.112 E8.30131
G1 X15.669 Y170.089 E8.31959
G1 X15.663 Y169.981 E8.32151
G1 X15.67 Y145.786 E8.7516
G1 X15.69 Y145.582 E8.75525
G1 X15.843 Y144.81 E8.76924
G1 X15.931 Y144.55 E8.77412
G1 X16.277 Y143.848 E8.78803
G1 X16.43 Y143.619 E8.79292
G1 X16.944 Y143.034 E8.80677
G1 X17.149 Y142.855 E8.8116
G1 X17.803 Y142.417 E8.8256
G1 X18.049 Y142.295 E8.83048
G1 X18.788 Y142.044 E8.84435
G1 X19.119 Y141.988 E8.85032
G1 X24.1 Y141.956 E8.93886
G1 X24.377 Y141.991 E8.94383
G1 X25.131 Y142.192 E8.9577
G1 X25.388 Y142.299 E8.96265
G1 X26.066 Y142.692 E8.97658
G1 X26.281 Y142.858 E8.9814
G1 X26.835 Y143.412 E8.99533
G1 X27.001 Y143.627 E9.00016
G1 X27.394 Y144.305 E9.01409
G1 X27.501 Y144.562 E9.01904
G1 X27.702 Y145.316 E9.03291
G1 X27.737 Y145.585 E9.03773
M204 S625
M205 X6 Y6
G0 F5000 X27.317 Y145.585
M204 S500
M205 X5 Y5
G1 F1200 X27.337 Y170.235 E9.47591
G1 X27.329 Y170.334 E9.47768
G1 X27.17 Y171.349 E9.49594
G1 X27.138 Y171.472 E9.4982
G1 X26.777 Y172.435 E9.51648
G1 X26.718 Y172.552 E9.51881
G1 X26.164 Y173.422 E9.53714
G1 X26.084 Y173.524 E9.53945
G1 X25.369 Y174.257 E9.55765
G1 X25.27 Y174.34 E9.55995
G1 X24.416 Y174.915 E9.57825
G1 X24.302 Y174.975 E9.58054
G1 X23.348 Y175.364 E9.59885
G1 X23.223 Y175.401 E9.60117
G1 X22.211 Y175.585 E9.61945
G1 X22.082 Y175.595 E9.62175
G1 X21.053 Y175.569 E9.64005
G1 X20.924 Y175.552 E9.64236
G1 X19.925 Y175.316 E9.66061
G1 X19.803 Y175.274 E9.6629
G1 X18.874 Y174.839 E9.68114
G1 X18.763 Y174.772 E9.68344
G1 X17.937 Y174.153 E9.70179
G1 X17.841 Y174.064 E9.70412
G1 X17.163 Y173.291 E9.72239
G1 X17.088 Y173.186 E9.72469
G1 X16.584 Y172.293 E9.74292
G1 X16.533 Y172.175 E9.7452
G1 X16.219 Y171.196 E9.76348
G1 X16.192 Y171.069 E9.76578
G1 X16.086 Y170.046 E9.78407
G1 X16.083 Y169.981 E9.78522
G1 X16.09 Y145.786 E10.21531
G1 X16.102 Y145.664 E10.21749
G1 X16.255 Y144.892 E10.23148
G1 X16.308 Y144.735 E10.23443
G1 X16.654 Y144.033 E10.24834
G1 X16.746 Y143.896 E10.25127
G1 X17.26 Y143.311 E10.26512
G1 X17.382 Y143.204 E10.268
G1 X18.036 Y142.766 E10.28199
G1 X18.184 Y142.692 E10.28493
G1 X18.923 Y142.441 E10.29881
G1 X19.122 Y142.408 E10.30239
G1 X24.103 Y142.376 E10.39094
G1 X24.269 Y142.397 E10.39391
G1 X25.023 Y142.598 E10.40778
G1 X25.177 Y142.662 E10.41075
G1 X25.855 Y143.055 E10.42468
G1 X25.984 Y143.155 E10.42758
G1 X26.538 Y143.709 E10.44151
G1 X26.638 Y143.838 E10.44441
G1 X27.031 Y144.516 E10.45834
G1 X27.095 Y144.67 E10.4613
G1 X27.296 Y145.424 E10.47517
G1 X27.317 Y145.585 E10.47806
M204 S625
M205 X6 Y6
G0 F5000 X26.897 Y145.586
M204 S500
M205 X5 Y5
G1 F1200 X26.917 Y170.236 E10.91624
G1 X26.914 Y170.269 E10.91683
G1 X26.755 Y171.284 E10.93509
G1 X26.745 Y171.325 E10.93584
G1 X26.384 Y172.288 E10.95412
G1 X26.364 Y172.327 E10.9549
G1 X25.81 Y173.197 E10.97323
G1 X25.783 Y173.231 E10.97401
G1 X25.068 Y173.964 E10.99221
G1 X25.035 Y173.991 E10.99297
G1 X24.181 Y174.566 E11.01127
G1 X24.143 Y174.586 E11.01203
G1 X23.189 Y174.975 E11.03034
G1 X23.148 Y174.988 E11.03111
G1 X22.136 Y175.172 E11.04939
G1 X22.093 Y175.175 E11.05016
G1 X21.064 Y175.149 E11.06846
G1 X21.021 Y175.143 E11.06923
G1 X20.022 Y174.907 E11.08748
G1 X19.981 Y174.893 E11.08825
G1 X19.052 Y174.458 E11.10648
G1 X19.015 Y174.436 E11.10725
G1 X18.189 Y173.817 E11.12559
G1 X18.157 Y173.787 E11.12637
G1 X17.479 Y173.014 E11.14465
G1 X17.454 Y172.979 E11.14542
G1 X16.95 Y172.086 E11.16364
G1 X16.933 Y172.047 E11.1644
G1 X16.619 Y171.068 E11.18268
G1 X16.61 Y171.026 E11.18344
G1 X16.504 Y170.003 E11.20172
G1 X16.503 Y169.981 E11.20211
G1 X16.51 Y145.786 E11.6322
G1 X16.514 Y145.745 E11.63293
G1 X16.667 Y144.973 E11.64692
G1 X16.685 Y144.921 E11.6479
G1 X17.031 Y144.219 E11.66181
G1 X17.061 Y144.173 E11.66279
G1 X17.575 Y143.588 E11.67663
G1 X17.616 Y143.553 E11.67759
G1 X18.27 Y143.115 E11.69158
G1 X18.319 Y143.09 E11.69256
G1 X19.058 Y142.839 E11.70644
G1 X19.125 Y142.828 E11.70764
G1 X24.106 Y142.796 E11.79619
G1 X24.161 Y142.803 E11.79717
G1 X24.915 Y143.004 E11.81104
G1 X24.966 Y143.025 E11.81202
G1 X25.644 Y143.418 E11.82595
